X:1
T:Requiem
T:Wolfgang Amadeus Mozart Engraved by R. L. Roy
T:Excerpt 1 Tuba mirum: Beginning to [B]
T:Tenor Trombone
T:www.brassexcerpts.com This work is made available under the Creative Commons CC0 1.0 Universal Public Domain Dedication. You can copy, modify, distribute and perform the work, even for commercial purposes, all without asking permission.
Z:www.brassexcerpts.com
Z:This work is made available under the Creative Commons CC0 1.0 Universal Public Domain Dedication.
Z:You can copy, modify, distribute and perform the work, even for commercial purposes, all without asking permission.
L:1/8
Q:1/4=64
M:2/2
K:Bb
V:1 tenor nm="Piano" snm="Pno."
V:1
"^Andante.""^Solo" B,4 F,4 | D2 B,2 F,2 D,2 | B,,8 | z8 | z B,DF _AFD_A, | G,B,E_G FCFE | %6
 D2 z2 !fermata!z4 | F3 G/F/ EDCB, | B,A,CB, A,4 | E3 F/E/ DCB,A, | B,B,,D,F, D,F, B,2 | %11
 z E,G,C F,A, D2 | z G,B,E A,C F2 | z8 | z2 z (C D=EFG) | (_A=EFG AEF_A,) | (=A,CFA, G,B,F=E) | %17
"^A" F2 z2 z4 | z8 | z8 | z8 | z8 | z8 |!p! B,8 | C8 | B,4 (D3 C) | B,4 (B,3 =B,) | %27
 A,2!f! =E2 ^CA,=B,C | D8- | D8- | D8- | D8 | z2 (F,2 A,2 ^C2) |"^B" D2 z2 z4 |] %34

